X: 21269
T: Keeping Mary Up Late
R: jig
M: 6/8
K: Dmajor
|:A>BA AGF|EDE FGA|Bcd efg|fda ecA|
A>BA AGF|EDE FGA|BB/c/d fdA|ecA d3:|
|:fgf dAa|ece gec|ded BGe|cAc ecA|
fgf dAa|ece gec|ded BGe|cec d3:|
|:FDD GDD|ADD BDD|cDD def|gag ecA|
[1 FDD GEE|AFF BGG|cAA dd/e/f|gec d3:|
[2 Fdd Gee|Aff Bgg|caa def|gec d3||

